X: 30502
T: Olive O'Mahoney's
R: jig
M: 6/8
K: Dminor
A|:def e2f|def g2g|a2a gaf|eag fef|
def e2f|def g2g|~a3 gaf|1 edc d2f:|2 edc d2f||
|:~g3 gfe|~g3 gfe|~g3 gfe|efe def|
~g3 gfe|~g3 gfe|fga gaf|1 edc d2f:|2 edc d2A||

